src/assets/images/move.svg

<?xml version="1.0" encoding="UTF-8"?>
<svg width="24px" height="25px" viewBox="0 0 24 25" version="1.1" xmlns="http://www.w3.org/2000/svg" xmlns:xlink="http://www.w3.org/1999/xlink">
    <!-- Generator: Sketch 55.2 (78181) - https://sketchapp.com -->
    <title>move</title>
    <desc>Created with Sketch.</desc>
    <g id="Final-Screens" stroke="none" stroke-width="1" fill="none" fill-rule="evenodd">
        <g id="customer-master-v1.2-copy-8" transform="translate(-260.000000, -323.000000)" fill="#52575A" fill-rule="nonzero">
            <g id="move" transform="translate(260.000000, 323.000000)">
                <path d="M23.2046784,13.6284356 L0.748538012,13.6284356 C0.335343579,13.6284356 0,13.090838 0,12.4284356 C0,11.7660333 0.335343579,11.2284356 0.748538012,11.2284356 L23.2046784,11.2284356 C23.6178728,11.2284356 23.9532164,11.7660333 23.9532164,12.4284356 C23.9532164,13.090838 23.6178728,13.6284356 23.2046784,13.6284356 Z" id="Path"></path>
                <path d="M15.220212,19.367288 L0.748538012,19.367288 C0.335343579,19.367288 0,18.8296903 0,18.167288 C0,17.5048857 0.335343579,16.967288 0.748538012,16.967288 L15.220212,16.967288 C15.6334064,16.967288 15.96875,17.5048857 15.96875,18.167288 C15.96875,18.8296903 15.6334064,19.367288 15.220212,19.367288 Z" id="Path"></path>
                <path d="M15.220212,24.8565058 L0.748538012,24.8565058 C0.335343579,24.8565058 0,24.3189082 0,23.6565058 C0,22.9941035 0.335343579,22.4565058 0.748538012,22.4565058 L15.220212,22.4565058 C15.6334064,22.4565058 15.96875,22.9941035 15.96875,23.6565058 C15.96875,24.3189082 15.6334064,24.8565058 15.220212,24.8565058 Z" id="Path"></path>
                <path d="M15.220212,7.88958335 L0.748538012,7.88958335 C0.335343579,7.88958335 0,7.35198567 0,6.68958335 C0,6.02718095 0.335343579,5.48958335 0.748538012,5.48958335 L15.220212,5.48958335 C15.6334064,5.48958335 15.96875,6.02718095 15.96875,6.68958335 C15.96875,7.35198567 15.6334064,7.88958335 15.220212,7.88958335 Z" id="Path"></path>
                <path d="M15.220212,2.4003655 L0.748538012,2.4003655 C0.335343579,2.4003655 0,1.86276789 0,1.20036548 C0,0.537963143 0.335343579,0.000365497076 0.748538012,0.000365497076 L15.220212,0.000365497076 C15.6334064,0.000365497076 15.96875,0.537963143 15.96875,1.20036548 C15.96875,1.86276789 15.6334064,2.4003655 15.220212,2.4003655 Z" id="Path"></path>
                <path d="M19.2125366,16.7176535 C19.0208333,16.7176535 18.8293128,16.6449196 18.6834795,16.4981725 C18.3910819,16.2057749 18.3910819,15.7317251 18.6834795,15.4391447 L22.1467471,11.9760599 L18.6834795,8.51279242 C18.3910819,8.22039476 18.3910819,7.74616229 18.6834795,7.45376463 C18.9758772,7.16136697 19.4499269,7.16136697 19.7425073,7.45376463 L23.7346491,11.4460892 C24.0270468,11.7384868 24.0270468,12.2125366 23.7346491,12.5049342 L19.7425073,16.497076 C19.5957602,16.6449196 19.404057,16.7176535 19.2125366,16.7176535 L19.2125366,16.7176535 Z" id="Path"></path>
                <path d="M23.2046784,13.6284356 L0.748538012,13.6284356 C0.335343579,13.6284356 0,13.090838 0,12.4284356 C0,11.7660333 0.335343579,11.2284356 0.748538012,11.2284356 L23.2046784,11.2284356 C23.6178728,11.2284356 23.9532164,11.7660333 23.9532164,12.4284356 C23.9532164,13.090838 23.6178728,13.6284356 23.2046784,13.6284356 Z" id="Path"></path>
                <path d="M15.220212,19.367288 L0.748538012,19.367288 C0.335343579,19.367288 0,18.8296903 0,18.167288 C0,17.5048857 0.335343579,16.967288 0.748538012,16.967288 L15.220212,16.967288 C15.6334064,16.967288 15.96875,17.5048857 15.96875,18.167288 C15.96875,18.8296903 15.6334064,19.367288 15.220212,19.367288 Z" id="Path"></path>
                <path d="M15.220212,24.8565058 L0.748538012,24.8565058 C0.335343579,24.8565058 0,24.3189082 0,23.6565058 C0,22.9941035 0.335343579,22.4565058 0.748538012,22.4565058 L15.220212,22.4565058 C15.6334064,22.4565058 15.96875,22.9941035 15.96875,23.6565058 C15.96875,24.3189082 15.6334064,24.8565058 15.220212,24.8565058 Z" id="Path"></path>
                <path d="M15.220212,7.88958335 L0.748538012,7.88958335 C0.335343579,7.88958335 0,7.35198567 0,6.68958335 C0,6.02718095 0.335343579,5.48958335 0.748538012,5.48958335 L15.220212,5.48958335 C15.6334064,5.48958335 15.96875,6.02718095 15.96875,6.68958335 C15.96875,7.35198567 15.6334064,7.88958335 15.220212,7.88958335 Z" id="Path"></path>
                <path d="M15.220212,2.4003655 L0.748538012,2.4003655 C0.335343579,2.4003655 0,1.86276789 0,1.20036548 C0,0.537963143 0.335343579,0.000365497076 0.748538012,0.000365497076 L15.220212,0.000365497076 C15.6334064,0.000365497076 15.96875,0.537963143 15.96875,1.20036548 C15.96875,1.86276789 15.6334064,2.4003655 15.220212,2.4003655 Z" id="Path"></path>
                <path d="M19.2125366,16.7176535 C19.0208333,16.7176535 18.8293128,16.6449196 18.6834795,16.4981725 C18.3910819,16.2057749 18.3910819,15.7317251 18.6834795,15.4391447 L22.1467471,11.9760599 L18.6834795,8.51279242 C18.3910819,8.22039476 18.3910819,7.74616229 18.6834795,7.45376463 C18.9758772,7.16136697 19.4499269,7.16136697 19.7425073,7.45376463 L23.7346491,11.4460892 C24.0270468,11.7384868 24.0270468,12.2125366 23.7346491,12.5049342 L19.7425073,16.497076 C19.5957602,16.6449196 19.404057,16.7176535 19.2125366,16.7176535 L19.2125366,16.7176535 Z" id="Path"></path>
            </g>
        </g>
    </g>
</svg>

<?xml version="1.0" encoding="UTF-8"?>
<svg version="1.1" viewBox="0 0 24 25" xmlns="http://www.w3.org/2000/svg">
<title>move</title>
<desc>Created with Sketch.</desc>
<g fill="none" fill-rule="evenodd">
<g transform="translate(-260 -323)" fill="#52575A" fill-rule="nonzero">
<g transform="translate(260 323)">
<path d="m23.205 13.628h-22.456c-0.41319 0-0.74854-0.5376-0.74854-1.2 0-0.6624 0.33534-1.2 0.74854-1.2h22.456c0.41319 0 0.74854 0.5376 0.74854 1.2 0 0.6624-0.33534 1.2-0.74854 1.2z"/>
<path d="m15.22 19.367h-14.472c-0.41319 0-0.74854-0.5376-0.74854-1.2s0.33534-1.2 0.74854-1.2h14.472c0.41319 0 0.74854 0.5376 0.74854 1.2s-0.33534 1.2-0.74854 1.2z"/>
<path d="m15.22 24.857h-14.472c-0.41319 0-0.74854-0.5376-0.74854-1.2 0-0.6624 0.33534-1.2 0.74854-1.2h14.472c0.41319 0 0.74854 0.5376 0.74854 1.2 0 0.6624-0.33534 1.2-0.74854 1.2z"/>
<path d="m15.22 7.8896h-14.472c-0.41319 0-0.74854-0.5376-0.74854-1.2 0-0.6624 0.33534-1.2 0.74854-1.2h14.472c0.41319 0 0.74854 0.5376 0.74854 1.2 0 0.6624-0.33534 1.2-0.74854 1.2z"/>
<path d="m15.22 2.4004h-14.472c-0.41319 0-0.74854-0.5376-0.74854-1.2 0-0.6624 0.33534-1.2 0.74854-1.2h14.472c0.41319 0 0.74854 0.5376 0.74854 1.2 0 0.6624-0.33534 1.2-0.74854 1.2z"/>
<path d="m19.213 16.718c-0.1917 0-0.38322-0.072734-0.52906-0.21948-0.2924-0.2924-0.2924-0.76645 0-1.059l3.4633-3.4631-3.4633-3.4633c-0.2924-0.2924-0.2924-0.76663 0-1.059 0.2924-0.2924 0.76645-0.2924 1.059 0l3.9921 3.9923c0.2924 0.2924 0.2924 0.76645 0 1.0588l-3.9921 3.9921c-0.14675 0.14784-0.33845 0.22058-0.52997 0.22058z"/>
<path d="m23.205 13.628h-22.456c-0.41319 0-0.74854-0.5376-0.74854-1.2 0-0.6624 0.33534-1.2 0.74854-1.2h22.456c0.41319 0 0.74854 0.5376 0.74854 1.2 0 0.6624-0.33534 1.2-0.74854 1.2z"/>
<path d="m15.22 19.367h-14.472c-0.41319 0-0.74854-0.5376-0.74854-1.2s0.33534-1.2 0.74854-1.2h14.472c0.41319 0 0.74854 0.5376 0.74854 1.2s-0.33534 1.2-0.74854 1.2z"/>
<path d="m15.22 24.857h-14.472c-0.41319 0-0.74854-0.5376-0.74854-1.2 0-0.6624 0.33534-1.2 0.74854-1.2h14.472c0.41319 0 0.74854 0.5376 0.74854 1.2 0 0.6624-0.33534 1.2-0.74854 1.2z"/>
<path d="m15.22 7.8896h-14.472c-0.41319 0-0.74854-0.5376-0.74854-1.2 0-0.6624 0.33534-1.2 0.74854-1.2h14.472c0.41319 0 0.74854 0.5376 0.74854 1.2 0 0.6624-0.33534 1.2-0.74854 1.2z"/>
<path d="m15.22 2.4004h-14.472c-0.41319 0-0.74854-0.5376-0.74854-1.2 0-0.6624 0.33534-1.2 0.74854-1.2h14.472c0.41319 0 0.74854 0.5376 0.74854 1.2 0 0.6624-0.33534 1.2-0.74854 1.2z"/>
<path d="m19.213 16.718c-0.1917 0-0.38322-0.072734-0.52906-0.21948-0.2924-0.2924-0.2924-0.76645 0-1.059l3.4633-3.4631-3.4633-3.4633c-0.2924-0.2924-0.2924-0.76663 0-1.059 0.2924-0.2924 0.76645-0.2924 1.059 0l3.9921 3.9923c0.2924 0.2924 0.2924 0.76645 0 1.0588l-3.9921 3.9921c-0.14675 0.14784-0.33845 0.22058-0.52997 0.22058z"/>
</g>
</g>
</g>
</svg>
